contributed-vectors/ostrom.svg

<svg xmlns="http://www.w3.org/2000/svg" xml:space="preserve" style="fill-rule:evenodd;clip-rule:evenodd;stroke-linejoin:round;stroke-miterlimit:2" viewBox="0 0 192 192"><circle cx="96" cy="96" r="88" opacity=".95" style="fill:#54688c"/><path d="m21.863 0-3.225 16.11-.063.588c-.032 2.718 3.493 5.002 7.961 5.002l23.147-.001c2.612-.001 4.959 1.934 4.959 4.547 0 13.419-10.07 24.534-23.207 26.479l3-15.49.062-.588c.032-2.635-3.278-4.188-7.553-4.28l-20.491-.268C3.086 32.055 0 29.614 0 26.246 0 13.288 9.389 2.479 21.863 0Z" style="fill:#96dfd3" transform="translate(64.485 65.59) scale(1.15351)"/></svg>

<?xml version="1.0" encoding="UTF-8" standalone="no"?>
<!DOCTYPE svg PUBLIC "-//W3C//DTD SVG 1.1//EN" "http://www.w3.org/Graphics/SVG/1.1/DTD/svg11.dtd">
<svg width="100%" height="100%" viewBox="0 0 192 192" version="1.1" xmlns="http://www.w3.org/2000/svg" xmlns:xlink="http://www.w3.org/1999/xlink" xml:space="preserve" xmlns:serif="http://www.serif.com/" style="fill-rule:evenodd;clip-rule:evenodd;stroke-linejoin:round;stroke-miterlimit:2;">
    <g id="Ostrom">
        <g opacity="0.95">
            <circle cx="96" cy="96" r="88" style="fill:rgb(84,104,140);"/>
        </g>
        <g transform="matrix(1.15351,0,0,1.15351,64.4852,65.5909)">
            <path d="M21.863,0L18.638,16.11L18.575,16.698C18.543,19.416 22.068,21.7 26.536,21.7L49.683,21.699C52.295,21.698 54.642,23.633 54.642,26.246C54.642,39.665 44.572,50.78 31.435,52.725L34.435,37.235L34.497,36.647C34.529,34.012 31.219,32.459 26.944,32.367L6.453,32.099C3.086,32.055 0,29.614 0,26.246C0,13.288 9.389,2.479 21.863,0Z" style="fill:rgb(150,223,211);"/>
        </g>
    </g>
</svg>
